X:1
T:Day-Spring, 11.8.11.8 D
T:Day-Spring, 11.8.11.8 D
T:Horatio Richmond Palmer, 1880
T:Public Domain Courtesy of the Cyber Hymnal™
C:Horatio Richmond Palmer, 1880
Z:Public Domain
Z:Courtesy of the Cyber Hymnal™
%%score ( 1 2 ) ( 3 4 )
L:1/8
Q:1/4=85
M:6/8
K:C
V:1 treble 
V:2 treble 
V:3 bass 
V:4 bass 
V:1
 [EG] | [EG]>[DF][CE] [Ac]>[GB][FA] | [EG][CE][FA] [EG]2 [EG] | [EG]>[DF][CE] [B,D][CE][DF] | %4
 [CE]3- [CE]2 [EG] | [EG]>[DF][CE] [Ac]>[GB][FA] | [EG][CE][FA] [EG]2 [EG] | %7
 [EG]>[Ec][Ge] [Fd][Ge][Fd] | [Ec]3- [Ec]2 [Ec] | [Fd]>[Ec][DB] [DB][Ec][Fd] | %10
 [Ec][EG][Ec] [Ge]2 [Ge] | [Gd]>[Ge][Gd] [Ac][GB][^FA] | G3- !fermata![FG]2 [FG] | %13
 [EG]>[DF][CE] [Ac]>[GB][FA] | [EG][CE][FA] [EG]2 [EG] | [EG]>[Ec][Ge] [Fd][Ge][Fd] | %16
 c3- !fermata![Ec]2 |] %17
V:2
 x | x6 | x6 | x6 | x6 | x6 | x6 | x6 | x6 | x6 | x6 | x6 | GDE x3 | x6 | x6 | x6 | ECF x2 |] %17
V:3
 [C,C] | [C,C]>[C,C][C,G,] [C,F,]>[C,G,] (A,/B,/) | [C,C][C,G,][C,C] [C,C]2 [C,G,] | %3
 [G,,G,]>[G,,G,][G,,G,] [G,,G,][G,,G,][G,,G,] | [C,G,]3- [C,G,]2 [C,C] | %5
 [C,C]>[C,C][C,G,] [C,F,]>[C,G,] (A,/B,/) | [C,C][C,G,][C,C] [C,C]2 [C,C] | %7
 [C,C]>[C,G,][C,C] [G,B,][G,B,][G,B,] | [C,C]3- [C,C]2 [E,G,] | G,>G,G, G,G,[G,B,] | %10
 [C,C][C,E][C,G,] [C,C]2 [C,C] | [D,B,]>[D,C][D,B,] [D,A,][D,D][D,C] | %12
 (B,2 C !fermata![G,D]2) [G,B,] | [C,C]>[C,B,][C,G,] [C,F,]>[C,G,] (A,/B,/) | %14
 [C,C][C,G,][C,C] [C,C]2 [C,C] | [C,C]>[C,G,][C,C] [G,B,][G,B,][G,B,] | (CE,A, !fermata![C,G,]2) |] %17
V:4
 x | x5 C, | x6 | x6 | x6 | x5 C, | x6 | x6 | x6 | G,>G,G, G,G, x | x6 | x6 | G,3 x3 | x5 C, | x6 | %15
 x6 | C,3- x2 |] %17

